X: 9
T: Miss McLeod's
R: reel
M: 4/4
L: 1/8
K: Gmaj
GGBG DGBG|BBBA BdBA|GGBd gfed|egdB AdBA|GGBG DGBG|BBBA GABd|eccB cdea|gedB AGED||GGBG DGBG|(3BdB BA BdBA|GGBG DGBd|FEDC B,DA,D|G,G,BG DGBG|BBBA GABd|eccB cdea|gedB AdBA||ggag edeg|BBBA GABd|ggag edeg|aabg aged|ggag edeg|BBBA GABd|eccB cdea|gedB AdBA||ggag edeg|bbBA GABd|ggag edeg|ac'bg aged|gbag edeg|BBBA GABd|(3efg fa gbae|gedB AGED||GGBG DGBG|(3BdB BA BdBA|GGBd gfed|(3efg dB AGED|GGBG DGBG|[BB,2]BBA GABd|eccB cdea|gedB (3ABc BA||GGBG DGBG|(3BdB BA BdBA|GGBG DGBd|FEDC B,DA,D|G,G,BG B,GBG|BBAB GABd|eccB cdea|gedB AcBA||G2 Gg edeg|[Bb][Bb]BA GABd|G2 Gg edeg|a2 bg aged|ggag edeg|BBBA GABd|ec (3ccc egga|gedB AdBA||ggag edeg|bbBA GABd|ggag edeg|ac'bg aged|gbag edeg|BBBA GABd|(3efg fa gbae|gedB (3ABc BA||GGBG DGBG|(3BdB BA BdBA|GGBd gfed|(3efg dB AGED|GGBG DGBG|[BB,]BBA GABd|ec (3ccc egga|gedB (3ABc BA||GGBG DGBG|(3BdB BA BdBA|GGBG DGBd|FEDC B,DA,D|G,G,BG B,GBG|(3BdB AB GABd|eccB cdea|gedB (3ABc BA||ggag edeg|[bB]bBA GABd|ggag edeg|aabg aged|ggag edeg|[bB]bBA GABd|ec (3ccB cdea|gedB AcBA||G2 Gg edeg|[bB]bBA GABd|GGGg edeg|ac'bg aged|ggfg edeg|BBBA GABd|egfa gbae|gedB (3ABc BA||[G2G,2] GG DGBG|[B,2B2] BA BdBA|GGBd gfed|(3efg dB (3ABc BA|GGBG DGBG|(3BdB BA GABd|eccB cdea|gedB (3ABc BA||GGBG DGBG|(3BdB BA BdBA|GGBG DGBd|FEDC B,DA,D|G,2 BG DGBG|BBAB GABd|eccB cdea|gedB AcBA||[g2G2] Gg edeg|bbbA GABd|ggag edeg|ac'bg aged|ggag edeg|bbBA GABd|eccB cdea|gedB (3ABc BA||ggag edeg|bbBA GABd|ggag edeg|ac'bg aged|gbag edeg|bBBA GABd|(3efg fa g2 (3bag|gedB (3ABc BA|G4 z4|]


Tune 75	Setting 24548

